usr/share/icons/biglinux-icons-material-dark/symbolic/categories/emoji-flags-symbolic.svg

<svg width="16.003" height="16" version="1.1" xmlns="http://www.w3.org/2000/svg">
 <path d="m2 1v14h0.99967v-6a0.99967 1 0 0 0 0.0039 0h3.3817l0.72047 1.4473a0.99967 1 0 0 0 0.89619 0.55273h4.9984a0.99967 1 0 0 0 0.99968-1v-6a0.99967 1 0 0 0-0.99968-1h-3.3837l-0.72047-1.4473a0.99967 1 0 0 0-0.89424-0.55273h-4.9984a0.99967 1 0 0 0-0.0039 0zm1.0036 1h4.9984l0.99967 2h3.9987v6h-4.9984l-0.99967-2h-3.9987z" fill="#dedede"/>
</svg>

<svg xmlns="http://www.w3.org/2000/svg" width="16.003" height="16">
<style id="current-color-scheme" type="text/css">
.ColorScheme-Contrast{color:#dedede}
</style>
<path d="M2 1v14h1V9h3.385l.72 1.447a1 1 0 0 0 .897.553H13a1 1 0 0 0 1-1V4a1 1 0 0 0-1-1H9.617l-.72-1.447A1 1 0 0 0 8.001 1H3zm1.004 1h4.998l1 2H13v6H8.002l-1-2H3.004z" class="ColorScheme-Contrast" style="fill:currentColor"/>
</svg>
